X:1
T:Title
%%score { ( 1 4 ) | ( 2 3 ) }
L:1/8
M:4/2
K:F
V:1 treble nm="Grand Piano"
V:4 treble 
V:2 bass 
V:3 bass 
V:1
 z8 z4[Q:1/4=124] D2 D2 | [DF]2 F2 E2 F2 D4 _E2 ^C2 | D8 _E8 | D12 D2 D2 | %4
[M:6/4] [DF]2 F2 E2 F2 D4 |[M:2/4] [G,_E]2 ^C2 |[M:8/4] D8 _E8 | D12 D2 D2 | %8
 [G,B,]2 B,2 D2 B,2 C4[K:treble] D2 C2 | [G,B,]2 B,2 [B,E]2 E2 [A,F]4 _E2 F2 | %10
 [DF]2 F2 E2 F2 D4 _E2 ^C2 | D8 _E8 |[M:6/4] D12 |] %13
V:2
 z8 z4 F,2 B,2 | z2 D2 ^C2 D2 B,4 G,2 E,2 | [F,,F,]8 [F,A,]8 | [B,,B,]12 F,2 B,2 | %4
[M:6/4] z2 D2 ^C2 D2 B,4 |[M:2/4] z2 E,2 |[M:8/4] [F,,F,]8 [F,C]8 | [B,,B,]12 D,2 D,2 | %8
 z2 G,2 B,2 [B,,G,]2 [D,A,]4 D,2 A,2 | z2 G,2 z2 B,2 z4 G,2 F,2 | z2 D2 ^C2 D2 B,4 G,2 E,2 | %11
 [F,,F,]8 [F,C]8 |[M:6/4] [B,,B,]12 |] %13
V:3
 x16 | B,,16 | x16 | x16 |[M:6/4] B,,12 |[M:2/4] B,,4 |[M:8/4] x16 | z8 z4 D,,4 | G,,8 z4 D,,4 | %9
 G,,4 C,4 F,,8 | B,,16 | x16 |[M:6/4] x12 |] %13
V:4
 x16 | x16 | x16 | x16 |[M:6/4] x12 |[M:2/4] x4 |[M:8/4] x16 | x16 | x12[K:treble] x4 | z8 F,8 | %10
 x16 | x16 |[M:6/4] x12 |] %13

